img/logo.svg

<?xml version="1.0" encoding="utf-8"?>
<!-- Generator: Adobe Illustrator 21.0.2, SVG Export Plug-In . SVG Version: 6.00 Build 0)  -->
<svg version="1.1" id="Layer_1" xmlns="http://www.w3.org/2000/svg" xmlns:xlink="http://www.w3.org/1999/xlink" x="0px" y="0px"
	 viewBox="0 0 98 27" enable-background="new 0 0 98 27" xml:space="preserve">
<title>Group</title>
<desc>Created with Sketch.</desc>
<g id="Page-1">
	<g id="Landing" transform="translate(-167.000000, -19.000000)">
		<g id="banner-2.0">
			<g id="Group" transform="translate(168.000000, 19.000000)">
				<path id="docker" fill="#FFFFFF" d="M47.9,6.5h0.2c0.6,0.1,0.8,0.4,0.8,0.8V14l0,1.1c0,0.9-0.4,1.9-1.1,2.9
					c-1.1,1.2-2.3,1.7-3.6,1.7h-0.3c-1.3,0-2.5-0.6-3.7-1.8c-0.7-1-1-2-1-3c0-1.6,0.7-2.9,2.1-4c0.9-0.6,1.8-0.9,2.8-0.9
					c1.2,0,2.2,0.3,3,1V7.9l0-0.6C47.3,6.8,47.6,6.5,47.9,6.5z M41.1,14.8V15c0,1.3,0.7,2.2,2,2.8c0.3,0.1,0.7,0.2,0.9,0.2h0.2
					c1.2,0,2.1-0.7,2.8-2c0.1-0.4,0.2-0.7,0.2-0.9v-0.2c0-1.3-0.7-2.2-2-2.8c-0.4-0.1-0.7-0.2-1-0.2H44c-1.2,0-2.1,0.6-2.8,1.9
					C41.1,14.2,41.1,14.5,41.1,14.8z M54.6,10.2c1.2,0,2.4,0.5,3.4,1.4c1,1,1.4,2.1,1.4,3.4c0,1.8-0.8,3.2-2.5,4.2
					c-0.7,0.4-1.5,0.6-2.2,0.6h-0.3c-1.3,0-2.5-0.6-3.6-1.8c-0.7-1-1-2-1-3c0-1.6,0.7-2.9,2.1-3.9C52.8,10.5,53.7,10.2,54.6,10.2z
					 M51.7,14.9v0.2c0,1.1,0.5,2,1.6,2.6c0.4,0.2,0.8,0.3,1.2,0.3h0.2c1.1,0,2-0.6,2.6-1.8c0.1-0.4,0.2-0.7,0.2-1.1v-0.2
					c0-0.9-0.4-1.7-1.3-2.3c-0.5-0.3-1.1-0.5-1.7-0.5c-1.3,0-2.2,0.7-2.8,2C51.7,14.4,51.7,14.6,51.7,14.9z M64.7,10.1
					c1.2,0,2.4,0.5,3.4,1.4c0.1,0.2,0.2,0.4,0.2,0.5v0.1c-0.1,0.6-0.4,0.9-0.9,0.9h0c-0.2,0-0.6-0.2-1.2-0.7
					c-0.4-0.2-0.9-0.3-1.3-0.3h-0.2c-1.2,0-2.1,0.6-2.7,1.9c-0.1,0.4-0.2,0.8-0.2,1.1c0,1.2,0.6,2.1,1.9,2.7
					c0.4,0.1,0.8,0.2,1.2,0.2c0.7,0,1.4-0.3,2.1-0.9l0.4-0.1h0.1c0.5,0,0.8,0.3,0.9,0.9v0.1c0,0.6-0.8,1.2-2.3,1.8
					c-0.5,0.1-0.9,0.1-1.1,0.1h-0.3c-1.3,0-2.5-0.6-3.6-1.8c-0.7-1-1-2-1-3c0-1.6,0.7-2.9,2.1-3.9C62.9,10.4,63.8,10.1,64.7,10.1z
					 M72.7,14.9l-1.1,0.7v3.3c0,0.5-0.3,0.8-0.9,0.9h-0.1c-0.5,0-0.8-0.3-0.9-0.8V7.4c0.1-0.6,0.4-0.9,0.8-0.9h0.2
					c0.6,0.1,0.9,0.4,0.9,0.8v6.1c2.9-1.9,4.6-3,5.2-3.4H77c0.5,0,0.8,0.3,0.9,1c0,0.4-0.4,0.8-1.2,1.2c-1.3,0.9-2.1,1.5-2.5,1.7
					l3.6,4.6l0.1,0.3v0.1c-0.1,0.6-0.4,0.9-0.9,0.9H77c-0.4,0-0.8-0.4-1.4-1.2L72.7,14.9z M83.4,10.2c1.9,0,3.3,0.9,4.3,2.6
					c0.4,0.7,0.5,1.4,0.5,2.2v0.2c-0.1,0.6-0.4,0.9-0.9,0.9h-6.7c0.2,0.6,0.7,1.1,1.4,1.5c0.5,0.2,0.9,0.3,1.3,0.3
					c0.5,0,1-0.2,1.7-0.5h0.3c0.6,0.1,0.8,0.4,0.8,0.9v0.1c0,0.7-0.9,1.2-2.6,1.4h-0.2c-1.7,0-3.1-0.8-4.2-2.4
					c-0.4-0.8-0.6-1.6-0.6-2.4c0-1.8,0.8-3.2,2.5-4.2C81.9,10.4,82.7,10.2,83.4,10.2z M80.6,14.3h5.8c0-0.2-0.2-0.7-0.7-1.3
					c-0.7-0.6-1.3-0.9-2-0.9h-0.4c-1,0-1.8,0.5-2.4,1.4C80.7,13.9,80.6,14.1,80.6,14.3z M90.8,10.1c0.6,0.1,0.9,0.4,0.9,0.8v0.1
					c0.7-0.7,1.7-1,2.9-1c0.6,0,1.3,0.2,2.1,0.5c0.3,0.3,0.4,0.5,0.4,0.8v0.1c-0.1,0.6-0.4,0.9-0.9,0.9H96c-0.6-0.2-1.1-0.3-1.3-0.3
					h-0.2c-1.2,0-2.1,0.6-2.6,1.9c-0.1,0.3-0.2,0.7-0.2,1.1v3.9c0,0.5-0.3,0.8-0.9,0.9h-0.1c-0.5,0-0.8-0.3-0.9-0.9v-7.8
					C89.9,10.4,90.2,10.1,90.8,10.1z"/>
				<path id="Shape" fill="#FFFFFF" stroke="#FFFFFF" stroke-width="0.7" d="M32.2,10c-0.1-1.5-0.9-2.8-2.3-3.9l-0.5-0.4L29,6.2
					c-0.7,1.1-1,2.5-0.9,3.7c0.1,0.8,0.4,1.7,0.9,2.3c-0.4,0.3-1.7,0.9-3.4,0.9H0.4C-0.1,15.8,0.7,26,12.4,26
					c8.7,0,15.8-3.9,19.1-12.1c1.1,0,3.9,0.2,5.3-2.5c0,0,0.4-0.7,0.4-0.7l-0.5-0.4C35.8,9.8,33.7,9.6,32.2,10z"/>
				<rect id="Rectangle-3" x="16.6" fill="#FFFFFF" width="3.9" height="3.6"/>
				<rect id="Rectangle-3_1_" x="16.6" y="4.3" fill="#FFFFFF" width="3.9" height="3.6"/>
				<rect id="Rectangle-3_2_" x="12" y="4.3" fill="#FFFFFF" width="3.9" height="3.6"/>
				<rect id="Rectangle-3_3_" x="7.4" y="4.3" fill="#FFFFFF" width="3.9" height="3.6"/>
				<rect id="Rectangle-3_4_" x="2.8" y="8.5" fill="#FFFFFF" width="3.9" height="3.6"/>
				<rect id="Rectangle-3_5_" x="7.4" y="8.5" fill="#FFFFFF" width="3.9" height="3.6"/>
				<rect id="Rectangle-3_6_" x="12" y="8.5" fill="#FFFFFF" width="3.9" height="3.6"/>
				<rect id="Rectangle-3_7_" x="16.6" y="8.5" fill="#FFFFFF" width="3.9" height="3.6"/>
				<rect id="Rectangle-3_8_" x="21.2" y="8.5" fill="#FFFFFF" width="3.9" height="3.6"/>
			</g>
		</g>
	</g>
</g>
</svg>

<svg width="39px" height="27px" viewBox="0 0 39 27" version="1.1" xmlns="http://www.w3.org/2000/svg" xmlns:xlink="http://www.w3.org/1999/xlink">
    <g id="Page-1" stroke="none" stroke-width="1" fill="none" fill-rule="evenodd">
        <g id="logo" transform="translate(1.000000, 0.000000)" fill-rule="nonzero" fill="#000000">
            <path d="M32.2,10 C32.1,8.5 31.3,7.2 29.9,6.1 L29.4,5.7 L29,6.2 C28.3,7.3 28,8.7 28.1,9.9 C28.2,10.7 28.5,11.6 29,12.2 C28.6,12.5 27.3,13.1 25.6,13.1 L0.4,13.1 C-0.1,15.8 0.7,26 12.4,26 C21.1,26 28.2,22.1 31.5,13.9 C32.6,13.9 35.4,14.1 36.8,11.4 C36.8,11.4 37.2,10.7 37.2,10.7 L36.7,10.3 C35.8,9.8 33.7,9.6 32.2,10 Z" id="Shape" stroke="#FFFFFF" stroke-width="0.7"></path>
            <rect id="Rectangle-3" x="16.6" y="0" width="3.9" height="3.6"></rect>
            <rect id="Rectangle-3_1_" x="16.6" y="4.3" width="3.9" height="3.6"></rect>
            <rect id="Rectangle-3_2_" x="12" y="4.3" width="3.9" height="3.6"></rect>
            <rect id="Rectangle-3_3_" x="7.4" y="4.3" width="3.9" height="3.6"></rect>
            <rect id="Rectangle-3_4_" x="2.8" y="8.5" width="3.9" height="3.6"></rect>
            <rect id="Rectangle-3_5_" x="7.4" y="8.5" width="3.9" height="3.6"></rect>
            <rect id="Rectangle-3_6_" x="12" y="8.5" width="3.9" height="3.6"></rect>
            <rect id="Rectangle-3_7_" x="16.6" y="8.5" width="3.9" height="3.6"></rect>
            <rect id="Rectangle-3_8_" x="21.2" y="8.5" width="3.9" height="3.6"></rect>
        </g>
    </g>
</svg>
